X: 1
T: Cork Hornpipe
M: 4/4
L: 1/8
R: Hornpipe
K: G
"D7" Bc| "G" dBGB d2 gf| "C" egfe "G" d2d2 | "Am" cedc "Em"BdcB | "D" c2 A2 A2 Bc | 
"G" dBGB d2 gf| "C" egfe "Bm" d2d2 | "Am"cdcB "D7" AcBA | "G" B2 G2 G2:|
|:gf | "G" g2 G2 G2 gf | "Em" e2 E2 E2 ed | "Am" cedc "Em" BdcB | "D" c2 A2  A2 Bc |  
"G" dBGB d2 gf| "C" egfe "Bm" d2d2 | "Am"cdcB "D7" AcBA | "G" B2 G2 G2:|
